X:133
T:Irish Washerwoman, The
R:jig
S:https://thesession.org/tunes/92
M:6/8
L:1/8
Z:Jeremy
K:Dmajor
|:BGG DGG|BGB dcB|cAA EAA|cAc edc|
BGG DGG|BGB dcB|cBc Adc|BGG G3:|
|:BGG DGG|BGB BAG|AFF DFF|AFA AGF|
EGG DGG|CGG B,GG|cBc Adc|BGG G3:|

